Catalina-dark/actions/22/depth16to8.svg

<svg xmlns="http://www.w3.org/2000/svg" viewBox="0 0 22 22">
  <defs id="defs3051">
    <style type="text/css" id="current-color-scheme">
      .ColorScheme-Text {
        color:#f2f2f2
      }
      </style>
  </defs>
  <g
     inkscape:label="Capa 1"
     inkscape:groupmode="layer"
     id="layer1"
     transform="translate(-544.57141,-742.93359)">
    <g
       id="layer1-9"
       inkscape:label="Capa 1"
       transform="matrix(-1,0,0,-1,1092.0562,1507.3017)">
      <g
         transform="translate(-0.52358024,-0.03300128)"
         id="g4212">
        <g
           transform="matrix(0.94261801,0,0,0.94261801,12.58775,42.6515)"
           id="g4221">
          <g
             transform="matrix(1.3035382,0,0,-1.3035382,-139.97056,1734.9849)"
             id="text4146"
             style="font-style:normal;font-weight:normal;font-size:7.5px;line-height:125%;font-family:sans-serif;letter-spacing:0px;word-spacing:0px;fill:#da4453;fill-opacity:1;stroke:none;stroke-width:1px;stroke-linecap:butt;stroke-linejoin:miter;stroke-opacity:1">
            <path
               style="font-style:normal;font-variant:normal;font-weight:normal;font-stretch:normal;font-family:'Product Sans';-inkscape-font-specification:'Product Sans';fill:#da4453;fill-opacity:1"
               d="M 16.605469 12.402344 C 16.046393 12.402344 15.585134 12.573922 15.222656 12.917969 C 14.860178 13.255872 14.679687 13.679527 14.679688 14.189453 C 14.679688 14.447488 14.756564 14.695943 14.910156 14.935547 C 15.063749 15.169007 15.260396 15.362033 15.5 15.515625 L 15.5 15.552734 C 15.192815 15.706327 14.944361 15.919131 14.753906 16.189453 C 14.563452 16.453632 14.466797 16.761138 14.466797 17.111328 C 14.466797 17.645829 14.672357 18.094553 15.083984 18.457031 C 15.495612 18.819509 16.003387 19 16.605469 19 C 17.207551 19 17.715326 18.819509 18.126953 18.457031 C 18.538581 18.094553 18.744141 17.645829 18.744141 17.111328 C 18.744141 16.761138 18.647486 16.453632 18.457031 16.189453 C 18.266577 15.919131 18.018122 15.706327 17.710938 15.552734 L 17.710938 15.515625 C 17.950542 15.362033 18.147189 15.169007 18.300781 14.935547 C 18.454374 14.695943 18.53125 14.447488 18.53125 14.189453 C 18.53125 13.679527 18.350759 13.255872 17.988281 12.917969 C 17.625803 12.573922 17.164545 12.402344 16.605469 12.402344 z M 16.605469 13.212891 C 16.912653 13.212891 17.168352 13.29868 17.371094 13.470703 C 17.567692 13.642727 17.666016 13.876978 17.666016 14.171875 C 17.666016 14.466772 17.567692 14.706314 17.371094 14.890625 C 17.168352 15.068792 16.912653 15.15625 16.605469 15.15625 C 16.298284 15.15625 16.046208 15.068792 15.849609 14.890625 C 15.646868 14.706314 15.544922 14.466772 15.544922 14.171875 C 15.544922 13.876978 15.646868 13.642727 15.849609 13.470703 C 16.046208 13.29868 16.298284 13.212891 16.605469 13.212891 z M 16.605469 15.949219 C 16.961803 15.949219 17.262065 16.054786 17.507812 16.263672 C 17.75356 16.472557 17.876953 16.738837 17.876953 17.064453 C 17.876953 17.396213 17.75356 17.666114 17.507812 17.875 C 17.262065 18.083886 16.961803 18.189453 16.605469 18.189453 C 16.249135 18.189453 15.948873 18.083886 15.703125 17.875 C 15.457377 17.666114 15.333984 17.396213 15.333984 17.064453 C 15.333984 16.738837 15.457377 16.472557 15.703125 16.263672 C 15.948873 16.054786 16.249135 15.949219 16.605469 15.949219 z "
               transform="matrix(-0.81384276,0,0,0.81384276,543.12561,743.59055)"
               id="path4169" />
          </g>
          <g
             transform="matrix(-1.3035382,0,0,-1.3035382,1262.117,1746.2797)"
             id="text4146-7"
             style="font-style:normal;font-weight:normal;font-size:7.5px;line-height:125%;font-family:sans-serif;letter-spacing:0px;word-spacing:0px;fill:#1d99f3;fill-opacity:1;stroke:none;stroke-width:1px;stroke-linecap:butt;stroke-linejoin:miter;stroke-opacity:1">
            <path
               style="font-style:normal;font-variant:normal;font-weight:normal;font-stretch:normal;font-family:'Product Sans';-inkscape-font-specification:'Product Sans';fill:#1d99f3;fill-opacity:1"
               d="M 9.3085938 3 L 7.59375 5.5351562 C 7.1022546 6.2539683 6.8554688 6.9046304 6.8554688 7.4882812 C 6.8554688 8.0412136 7.05936 8.5328321 7.4648438 8.9628906 C 7.8764712 9.3868054 8.3948277 9.5976562 9.0214844 9.5976562 C 9.6051352 9.5976562 10.109288 9.3868054 10.533203 8.9628906 C 10.963262 8.5389758 11.177734 8.0473573 11.177734 7.4882812 C 11.177734 6.9169178 10.972174 6.43059 10.560547 6.03125 C 10.148919 5.6257663 9.6985267 5.4238281 9.2070312 5.4238281 C 8.8937029 5.4238281 8.6594517 5.4720134 8.5058594 5.5703125 L 8.4882812 5.5527344 L 9.9902344 3.4707031 L 9.3085938 3 z M 5.109375 3.1464844 L 3.2558594 4.0136719 L 3.5800781 4.7324219 L 4.8046875 4.1972656 L 4.8046875 9.4511719 L 5.6523438 9.4511719 L 5.6523438 3.1464844 L 5.109375 3.1464844 z M 9.0214844 6.2167969 C 9.3778186 6.2167969 9.6817023 6.3418586 9.9335938 6.59375 C 10.191629 6.8394977 10.322266 7.1417127 10.322266 7.4980469 C 10.322266 7.8605248 10.191629 8.1644085 9.9335938 8.4101562 C 9.6817023 8.655904 9.3778186 8.7773438 9.0214844 8.7773438 C 8.6590065 8.7773438 8.349832 8.655904 8.0917969 8.4101562 C 7.8399055 8.1644085 7.7128906 7.8605248 7.7128906 7.4980469 C 7.7128906 7.1417127 7.8415743 6.8394977 8.0996094 6.59375 C 8.3576445 6.3418586 8.6651502 6.2167969 9.0214844 6.2167969 z "
               transform="matrix(0.81384276,0,0,0.81384276,532.47583,752.25528)"
               id="path4172" />
          </g>
          <path
             style="fill:currentColor;fill-opacity:1;stroke:none"
         class="ColorScheme-Text"
             d="M 12.310547 3.9824219 C 11.696079 4.0693138 11.440797 4.8521627 12.201172 5.140625 C 13.599904 5.3187138 14.906187 6.1093245 15.691406 7.4101562 C 15.920321 7.7893715 16.085379 8.1893122 16.199219 8.5957031 L 15.587891 8.6015625 C 15.26971 8.6043904 15.153381 8.8302168 15.326172 9.1074219 L 16.515625 11.011719 C 16.688784 11.289423 16.954182 11.289395 17.109375 11.011719 L 18.189453 9.0800781 C 18.344759 8.8022697 18.212787 8.5792694 17.894531 8.5820312 L 17.894531 8.5800781 L 16.710938 8.5917969 L 17.425781 8.578125 C 17.288819 7.964509 17.055909 7.361226 16.712891 6.7929688 C 15.777276 5.2429937 14.249534 4.2719 12.59375 3.9921875 C 12.493246 3.9727625 12.398328 3.9700087 12.310547 3.9824219 z M 6.8046875 10.806641 C 6.6970122 10.806842 6.5932213 10.874834 6.515625 11.013672 L 5.4355469 12.945312 C 5.2802411 13.223121 5.4122126 13.446121 5.7304688 13.443359 L 5.7304688 13.445312 L 6.9140625 13.433594 L 6.1992188 13.449219 C 6.3361811 14.062835 6.5671376 14.664165 6.9101562 15.232422 C 7.8457706 16.782397 9.3754661 17.755444 11.03125 18.035156 C 11.835284 18.190556 12.292828 17.214437 11.423828 16.884766 C 10.025096 16.706677 8.7188134 15.916066 7.9335938 14.615234 C 7.704679 14.236019 7.5396212 13.836078 7.4257812 13.429688 L 8.0371094 13.423828 C 8.3552901 13.421 8.4716194 13.195174 8.2988281 12.917969 L 7.109375 11.013672 C 7.0227955 10.87482 6.9123628 10.806439 6.8046875 10.806641 z "
             transform="matrix(-1.0608751,0,0,-1.0608751,568.01442,765.68621)"
             id="path8-3" />
        </g>
      </g>
    </g>
  </g>
</svg>

<svg width="22" height="22" viewBox="3.256 3 15.49 16" xmlns="http://www.w3.org/2000/svg">
<defs>
<style id="current-color-scheme" type="text/css">.ColorScheme-Text {
        color:#f2f2f2
      }</style>
</defs>
<g transform="translate(-544.57 -742.93)">
<g transform="matrix(-1 0 0 -1 1092.1 1507.3)">
<g transform="translate(-.52358 -.033001)">
<g transform="matrix(.94262 0 0 .94262 12.588 42.652)">
<g transform="matrix(1.3035 0 0 -1.3035 -139.97 1735)" fill="#da4453" stroke-width="1px">
<path transform="matrix(-.81384 0 0 .81384 543.13 743.59)" d="m16.605 12.402c-0.55908 0-1.0203 0.17158-1.3828 0.51562-0.36248 0.3379-0.54297 0.76156-0.54297 1.2715 0 0.25804 0.076876 0.50649 0.23047 0.74609 0.15359 0.23346 0.35024 0.42649 0.58984 0.58008v0.037109c-0.30718 0.15359-0.55564 0.3664-0.74609 0.63672-0.19045 0.26418-0.28711 0.57168-0.28711 0.92188 0 0.5345 0.20556 0.98322 0.61719 1.3457 0.41163 0.36248 0.9194 0.54297 1.5215 0.54297s1.1099-0.18049 1.5215-0.54297c0.41163-0.36248 0.61719-0.8112 0.61719-1.3457 0-0.35019-0.096655-0.6577-0.28711-0.92188-0.19045-0.27032-0.43891-0.48313-0.74609-0.63672v-0.037109c0.2396-0.15359 0.43625-0.34662 0.58984-0.58008 0.15359-0.2396 0.23047-0.48806 0.23047-0.74609 0-0.50993-0.18049-0.93358-0.54297-1.2715-0.36248-0.34405-0.82374-0.51562-1.3828-0.51562zm0 0.81055c0.30718 0 0.56288 0.085789 0.76562 0.25781 0.1966 0.17202 0.29492 0.40628 0.29492 0.70117s-0.098324 0.53444-0.29492 0.71875c-0.20274 0.17817-0.45844 0.26562-0.76562 0.26562-0.30718 0-0.55926-0.087458-0.75586-0.26562-0.20274-0.18431-0.30469-0.42385-0.30469-0.71875s0.10195-0.52915 0.30469-0.70117c0.1966-0.17202 0.44868-0.25781 0.75586-0.25781zm0 2.7363c0.35633 0 0.6566 0.10557 0.90234 0.31445 0.24575 0.20888 0.36914 0.47516 0.36914 0.80078 0 0.33176-0.12339 0.60166-0.36914 0.81055-0.24575 0.20889-0.54601 0.31445-0.90234 0.31445s-0.6566-0.10557-0.90234-0.31445-0.36914-0.47879-0.36914-0.81055c0-0.32562 0.12339-0.5919 0.36914-0.80078 0.24575-0.20889 0.54601-0.31445 0.90234-0.31445z" fill="#da4453"/>
</g>
<g transform="matrix(-1.3035 0 0 -1.3035 1262.1 1746.3)" fill="#1d99f3" stroke-width="1px">
<path transform="matrix(.81384 0 0 .81384 532.48 752.26)" d="m9.3086 3-1.7148 2.5352c-0.4915 0.71881-0.73828 1.3695-0.73828 1.9531 0 0.55293 0.20389 1.0446 0.60938 1.4746 0.41163 0.42391 0.92998 0.63477 1.5566 0.63477 0.58365 0 1.0878-0.21085 1.5117-0.63477 0.43006-0.42391 0.64453-0.91553 0.64453-1.4746 0-0.57136-0.20556-1.0577-0.61719-1.457-0.41163-0.40548-0.86202-0.60742-1.3535-0.60742-0.31333 0-0.54758 0.048185-0.70117 0.14648l-0.017578-0.017578 1.502-2.082-0.68164-0.4707zm-4.1992 0.14648-1.8535 0.86719 0.32422 0.71875 1.2246-0.53516v5.2539h0.84766v-6.3047h-0.54297zm3.9121 3.0703c0.35633 0 0.66022 0.12506 0.91211 0.37695 0.25804 0.24575 0.38867 0.54796 0.38867 0.9043 0 0.36248-0.13064 0.66636-0.38867 0.91211-0.25189 0.24575-0.55578 0.36719-0.91211 0.36719-0.36248 0-0.67165-0.12144-0.92969-0.36719-0.25189-0.24575-0.37891-0.54963-0.37891-0.91211 0-0.35633 0.12868-0.65855 0.38672-0.9043 0.25804-0.25189 0.56554-0.37695 0.92188-0.37695z" fill="#1d99f3"/>
</g>
<path class="ColorScheme-Text" transform="matrix(-1.0609 0 0 -1.0609 568.01 765.69)" d="m12.311 3.9824c-0.61447 0.086892-0.86975 0.86974-0.10938 1.1582 1.3987 0.17809 2.705 0.9687 3.4902 2.2695 0.22892 0.37922 0.39397 0.77916 0.50781 1.1855l-0.61133 0.0058594c-0.31818 0.0028279-0.43451 0.22865-0.26172 0.50586l1.1895 1.9043c0.17316 0.2777 0.43856 0.27768 0.59375 0l1.0801-1.9316c0.15531-0.27781 0.023334-0.50081-0.29492-0.49805v-0.0019531l-1.1836 0.011719 0.71484-0.013672c-0.13696-0.61362-0.36987-1.2169-0.71289-1.7852-0.93562-1.55-2.4634-2.5211-4.1191-2.8008-0.1005-0.019425-0.19542-0.022179-0.2832-0.0097656zm-5.5059 6.8242c-0.10768 2.01e-4 -0.21147 0.068193-0.28906 0.20703l-1.0801 1.9316c-0.15531 0.27781-0.023334 0.50081 0.29492 0.49805v0.001953l1.1836-0.011718-0.71484 0.015625c0.13696 0.61362 0.36792 1.2149 0.71094 1.7832 0.93561 1.55 2.4653 2.523 4.1211 2.8027 0.80403 0.1554 1.2616-0.82072 0.39258-1.1504-1.3987-0.17809-2.705-0.9687-3.4902-2.2695-0.22891-0.37922-0.39397-0.77916-0.50781-1.1855l0.61133-0.00586c0.31818-0.002828 0.43451-0.22865 0.26172-0.50586l-1.1895-1.9043c-0.08658-0.13885-0.19701-0.20723-0.30469-0.20703z" fill="currentColor"/>
</g>
</g>
</g>
</g>
</svg>
